X:1
T:Get Right with God
T:French Earl Oliver, 1905
T:Get Right with God
T:Public Domain
T:Public Domain
C:French Earl Oliver, 1905
Z:Public Domain
%%score ( 1 2 ) ( 3 4 )
L:1/8
M:6/8
K:Ab
V:1 treble 
V:2 treble 
V:3 bass 
V:4 bass 
V:1
 [Ec]>[=D=B][Ec] [F_d][Ec][EA] | (BA)[DF] [CA]3 | [CA]>[FA][FA] [Fc]2 [CA] | [=Dc][DB][DF] [EB]3 | %4
w: 1.~Are there with- in you base|pass- * ions rife,|and vain- glo- ry, ran-|cor and strife? Heed,|
w: 2.~Why not let Je- sus your|bur- * dens bear?|who are sink- ing in-|to des- pair, Lost|
w: 3.~Are you now long- ing for|per- * fect peace?|you from bond- age now|have re- lease? Seek|
w: 4.~Have you a mo- ther in|yon- * der home?|of her prayers and tears|as you roam; Hear|
 [Ec][=Ec]>[EB] [FA]2 [FG]/[FA]/ | [FB]2 [Fc] [Fd]2 [Gd] | [Ae]2 [EA] [Ec]2 [DB] | %7
w: heed the call to the bet-|ter life; “Get right,|get right with God!”|
w: for e- ter- ni- ty, O|be- ware! “Get right,|get right with God!”|
w: ye the Lord e’er His plead-|ings cease; “Get right,|get right with God!”|
w: her still plead- ing with you|to come; “Get right,|get right with God!”|
 [CA]3- [CA]2 z ||"^Refrain" [Ed]>[Fd][^Fd] [Gd]>[Gd][Gd] | (AG)[Fc] [Ec]3 | %10
w: |||
w: Je- *|sus of Na- za- reth stand-|eth * here, Friend|
w: |||
w: |||
 [EB][EB][EB] (Bc)[EB] | [=DB]>[DA][DF] (EC_D) | [Ec][=Ec]>[EG] [GB] [FA]2 | %13
w: |||
w: the sin- ner, Sav- * ior|dear; Call ye up- * *|Him while He is near;|
w: |||
w: |||
 [FB][FB][Fc] [Fd]2 [A=d] | [Ae]2 [EA] [Ec]2 [DB] | [CA]3- [CA]2 |] %16
w: |||
w: “Get right, get right with|God!” * * *||
w: |||
w: |||
V:2
 x6 | F2 x4 | x6 | x6 | x6 | x6 | x6 | x6 || x6 | c2 x4 | x3 E2 x | x3 E3 | x6 | x6 | x6 | x5 |] %16
w: |Pride|||||||||||||||
w: |Ye||||||||of|so|on|||||
w: |Would|||||||||||||||
w: |Think|||||||||||||||
V:3
 [A,,A,]>[A,,A,][A,,A,] [A,,A,][A,,A,][C,A,] | [D,A,]2 [D,A,] [A,,A,]3 | %2
w: ~ ~ ~ ~ ~ ~|~ ~ ~|
 [F,A,]>[F,C][F,C] [F,A,]2 [F,A,] | [B,,A,][B,,A,][B,,A,] [E,G,]3 | %4
w: ~ ~ ~ ~ ~|~ ~ ~ ~|
 A,[G,B,]>[G,C] [F,C]2 [F,C]/[F,C]/ | [D,B,]2 [C,=A,] [B,,B,]2 [F,_C] | [E,C]2 [E,C] (A,G,)[E,G,] | %7
w: ~ ~ ~ ~ ~ ~|~ ~ ~ ~|~ ~ ~ * ~|
 [A,,A,]3- [A,,A,]2 z || [E,G,]>[E,A,][E,=A,] [E,B,]>[E,B,][E,B,] | [A,,B,]2 [A,,A,] [A,,A,]3 | %10
w: ~ *|~ ~ ~ ~ ~ ~|~ ~ ~|
 [E,G,][E,G,][E,G,] (G,A,)[E,G,] | [B,,F,]>[B,,B,][B,,A,] G,A,B, | A,[G,B,]>[G,C] [F,C] [F,C]2 | %13
w: ~ ~ ~ ~ * ~|~ so dear; * * *||
 [D,B,][D,B,][C,=A,] [B,,B,]2 [F,_C] | [E,C]2 [E,C] (B,G,)[E,G,] | [A,,A,]3- [A,,A,]2 |] %16
w: |||
V:4
 x6 | x6 | x6 | x6 | A, x5 | x6 | x3 E,2 x | x6 || x6 | x6 | x3 E,2 x | x3 E,3 | A, x5 | x6 | %14
w: ||||~||~||||~||||
 x3 E,2 x | x5 |] %16
w: ||

